**kern	**kern	**kern	**kern
*staff3	*staff4	*staff1	*staff2
*clefF4	*clefF4	*clefG2	*clefG2
*k[f#c#]	*k[f#c#]	*k[f#c#]	*k[f#c#]
*M2/4	*M2/4	*M2/4	*M2/4
*D:	*D:	*D:	*D:
=-	=-	=-	=-
[2AA	4r	24C#LL	2r
.	.	24c#	.
.	.	24C#J	.
.	.	24EL	.
.	.	24e	.
.	.	24EJJ	.
*	*	*clefG2	*
.	8r	24GLL	.
.	.	24g	.
.	.	24GJ	.
.	8C#	24B-L	.
.	.	24b-	.
.	.	24B-JJ	.
=89	=89	=89	=89
2AA]	8DL	24ALL	2r
.	.	24a	.
.	.	24AJ	.
.	8GJ	24c#L	.
.	.	24cc#	.
.	.	24c#JJ	.
.	8FL	24dLL	.
.	.	24dd	.
.	.	24dJ	.
.	8DJ	24fL	.
.	.	24ff	.
.	.	24fJJ	.
=90	=90	=90	=90
[2AA	4.C#	24eLL	2r
.	.	24ee	.
.	.	24eJ	.
.	.	24gL	.
.	.	24gg	.
.	.	24gJJ	.
.	.	24aLL	.
.	.	24aa	.
.	.	24aJ	.
.	8CC#	24b-L	.
.	.	24bb-	.
.	.	24b-JJ	.
=91	=91	=91	=91
2AA]	8DDL	24aLL	2r
.	.	24aa	.
.	.	24aJ	.
.	8GGJ	24cc#L	.
.	.	24ccc#	.
.	.	24cc#JJ	.
.	8FFL	24ddLL	.
.	.	24ddd	.
.	.	24ddJ	.
.	8DDJ	24ffL	.
.	.	24fff	.
.	.	24ffJJ	.
=92	=92	=92	=92
[2AA	8CC#L	24eeLL	2r
.	.	24eee	.
.	.	24eeJ	.
.	8AAAJ	24cc#L	.
.	.	24ccc#	.
.	.	24cc#JJ	.
.	8BBBL	24aLL	.
.	.	24aa	.
.	.	24aJ	.
.	8CC#J	24gL	.
.	.	24gg	.
.	.	24gJJ	.
=93	=93	=93	=93
4AA]	8DDL	24f#LL	2r
.	.	24ff#	.
.	.	24f#J	.
.	8EEJ	24eL	.
.	.	24ee	.
.	.	24eJJ	.
4r	8FFL	24dLL	.
.	.	24dd	.
.	.	24dJ	.
.	8FF#J	24cL	.
.	.	24cc	.
.	.	24cJJ	.
=94	=94	=94	=94
2r	8GGL	24BLL	2r
.	.	24b	.
.	.	24BJ	.
.	8GG#J	24G#L	.
.	.	24g#	.
.	.	24G#JJ	.
.	8AAL	24ALL	.
.	.	24a	.
.	.	24AJ	.
*	*	*clefF4	*
.	8AAAJ	24C#L	.
.	.	24c#	.
.	.	24C#JJ	.
=95	=95	=95	=95
2r	(8DDL	24DLL	2r
.	.	24d	.
.	.	24DJJ	.
.	16FF#L	8r	.
.	16AAJJ)	.	.
.	8D	4r	.
.	8r	.	.
*	*clefG2	*clefG2	*
=96:|!	=96:|!	=96:|!	=96:|!
*-	*-	*-	*-
